X: 25550
T: Marine, The
R: jig
M: 6/8
K: Dmajor
f3 gfe|f2 d B2 A|A^GA faf|e3- e3|
f3 gfe|f2 d B2 A|A^GA faf|d3- d3||
e3 ee/f/g|a3- a2 f|g2 B gBB|g3- g2 e|
f3 gfe|f2 d B2 A|A^GA faf|d3- d3||

